!!!!SEGMENT: pl-wtm--r-1184--002_lessel-franciszek--adagio-et-fugue-fuga.krn
!!!cenid: 18xx:1633
!!!COM: Lessel, Franciszek
!!!COM-rismid: pe30004332
!!!CDT: 1780-1838/12/26
!!!CNT: Polish
!!!OPR: Adagio et Fugue
!!!OTL: Fuga
!!!OMV: 002
!!!PDT:
!!!AGN: Secular; Fugue
!!!SMS-siglum: PL-Wtm
!!!SMS-shelfmark: R 1184
!!!SMS-shelfwork: 001-002 M
!!!SMS-variant:
!!!SMS-altvar:
!!!NIFC-rismid: 1001087661
!!!system-decoration: {(s1,s2)}{(s3,s4)}
!!!key:
**kern	**kern	**kern	**dynam	**kern	**dynam
*part4	*part3	*part2	*part2	*part1	*part1
*staff4	*staff3	*staff2	*	*staff1	*
*Iempty	*Iempty	*Iempty	*	*Iempty	*
*	*I"Secondo.	*	*	*I"Primo.	*
*	*I'P-no II	*	*	*I'P-no I	*
*clefF4	*clefF4	*clefG2	*	*clefG2	*
*k[b-]	*k[b-]	*k[b-]	*	*k[b-]	*
*d:	*d:	*d:	*	*d:	*
*M2/2	*M2/2	*M2/2	*	*M2/2	*
*met(c|)	*met(c|)	*met(c|)	*	*met(c|)	*
=1	=1	=1	=1	=1	=1
*	*2\right	*	*	*	*
!	!	!	!	!LO:TX:a:t=P:problem=W źródle brak klucza na początku tej części utworu [przyjęty zgodnie z poprzednią częścią]	!
!	!	!LO:TX:a:t=P:problem=W źródle brak klucza na początku tej części utworu [przyjęty zgodnie z poprzednią częścią]	!	!	!
!LO:TX:a:t=P:problem=W źródle brak klucza na początku tej części utworu [przyjęty zgodnie z poprzednią częścią]	!LO:TX:a:t=P:problem=W źródle brak klucza na początku tej części utworu [przyjęty zgodnie z poprzednią częścią]	!	!	!	!
!	!LO:TX:b:Bi:t=Fuga All(egr)o.	!	!	!LO:TX:a:Bi:t=Fuga All(egr)o.	!
1r	4AA/	1r	.	1r	.
.	2A^<\	.	.	.	.
.	4G\	.	.	.	.
=2	=2	=2	=2	=2	=2
*	*	*	*	*2\right	*
1r	4F\	1r	.	8r	.
.	.	.	.	8a\L	.
.	4E\	.	.	8bn\	.
.	.	.	.	8cc#X\J	.
.	4D\	.	.	8dd\L	.
.	.	.	.	8ff\	.
.	4B-\	.	.	8ee\	.
.	.	.	.	8dd\J	.
=3	=3	=3	=3	=3	=3
1r	2.A\	1r	.	8cc#X\L	.
.	.	.	.	8dd\	.
.	.	.	.	8ee\	.
.	.	.	.	8ff\J	.
.	.	.	.	8gg\L	.
.	.	.	.	8aa\J	.
.	4G\	.	.	[>4bb-^<\	.
=4	=4	=4	=4	=4	=4
1r	8A\L	1r	.	4bb-\]	.
.	8G\J	.	.	.	.
.	4F\	.	.	2aa\	.
.	8G\L	.	.	.	.
.	8F\J	.	.	.	.
.	4E\	.	.	[>4gg\	.
=5	=5	=5	=5	=5	=5
*	*	*2\right	*	*	*
1r	8F\L	4d/	.	4gg\]	.
.	8E\J	.	.	.	.
.	4D\	2dd\	f >	8ff\L	.
.	.	.	.	8ee\J	.
.	2r	.	.	8ff\L	.
.	.	.	.	8aa\	.
.	.	4dd\	]	8gg#X\	.
.	.	.	.	8bbn\J	.
=6	=6	=6	=6	=6	=6
1r	8r	4cc\	.	8aa\L	.
.	8E\L	.	.	8gg#X\	.
.	8F#X\	4bn\	.	8aa\	.
.	8G#X\J	.	.	8bbn\J	.
.	8A\L	4a\	.	4.ccc\	.
.	8c\	.	.	.	.
.	8Bn\	4ff\	.	.	.
.	8A\J	.	.	8ddd\	.
=7	=7	=7	=7	=7	=7
1r	8G#X\L	2.ee\	.	4eee\	.
.	8A\	.	.	.	.
.	8Bn\	.	.	8ddd\L	.
.	8c\J	.	.	8ccc\J	.
.	8d\L	.	.	8bbn\L	.
.	8e\J	.	.	8ccc\	.
.	[>4f^<\	4dd\	.	8bb\	.
.	.	.	.	8aa\J	.
=8	=8	=8	=8	=8	=8
1r	4f\]	8ee\L	.	4gg#X\	.
.	.	8dd\J	.	.	.
.	2e\	4cc\	.	8aa\L	.
.	.	.	.	8ggn\J	.
!	!	!LO:LB:g=original	!	!LO:LB:g=original	!
.	.	8dd\L	.	8ff\L	.
.	.	8cc\J	.	8aa\	.
.	[>4d\	4bn\	.	8gg\	.
.	.	.	.	8ff\J	.
=9	=9	=9	=9	=9	=9
1r	4d\]	8cc\L	.	4ee\	.
.	.	8bn\J	.	.	.
.	4c\	2a/	.	8ff\L	.
.	.	.	.	8ee\J	.
.	8Bn\L	.	.	8dd\L	.
.	8d\	.	.	8ff\	.
.	8c\	4g#X/	.	8ee\	.
.	8B\J	.	.	8dd\J	.
!LO:LB:g=original	!LO:LB:g=original	!	!	!	!
=10	=10	=10	=10	=10	=10
1r	8c\L	4a/	.	4cc\	.
.	8Bn\J	.	.	.	.
.	2A\	8gn/L	.	4r	.
.	.	8f/J	.	.	.
.	.	8e/L	.	2r	.
.	.	8g/	.	.	.
.	[>4G\	8f/	.	.	.
.	.	8e/J	.	.	.
=11	=11	=11	=11	=11	=11
1r	4G\]	8d/L	.	4a/	.
.	.	8f/	.	.	.
.	4F\	8e/	.	2aa\	f >
.	.	8d/J	.	.	.
.	4E\	8c#X/L	.	.	.
.	.	8e/	.	.	.
.	4A\	8d/	.	4gg\	]
.	.	8c#/J	.	.	.
=12	=12	=12	=12	=12	=12
*2\right	*	*	*	*	*
8r	4D\	4d/	.	4ff\	.
8AA/L	.	.	.	.	.
8BBn/	4E\	8a/L	.	4ee\	.
8C#X/J	.	8g/J	.	.	.
8D\L	4F\	4f/	.	4dd\	.
8F\	.	.	.	.	.
8E\	4r	4g/	.	4bb-\	.
8D\J	.	.	.	.	.
=13	=13	=13	=13	=13	=13
8C#X\L	2r	8a\L	.	2.aa\	.
8D\	.	8bn\	.	.	.
8E\	.	8cc#X\	.	.	.
8F\J	.	8dd\J	.	.	.
8G\L	4r	8ee\L	.	.	.
8A\J	.	8ff\	.	.	.
[>4B-X\	8c#X\L	8ee\	.	4gg\	.
.	8d\J	8dd\J	.	.	.
=14	=14	=14	=14	=14	=14
4B-\]	4e\	4cc#X\	.	8aa\L	.
.	.	.	.	8gg\J	.
2A\	4f\	8dd\L	.	4ff\	.
.	.	8ccn\J	.	.	.
.	4d\	4b-\	.	8gg\L	.
.	.	.	.	8ff\J	.
4G\	4e\	8cc\L	.	4ee\	.
.	.	8b-\J	.	.	.
=15	=15	=15	=15	=15	=15
8A\L	4c#X\	4a/	.	8ff\L	.
8G\J	.	.	.	8ee\J	.
4F\	4d\	8b-/L	.	2dd\	.
.	.	8a/J	.	.	.
8G\L	4e\	8g/L	.	.	.
8F\J	.	8b-/	.	.	.
4E\	[>4A\	8a/	.	4cc#X\	.
.	.	8g/J	.	.	.
!	!	!LO:LB:g=original	!	!LO:LB:g=original	!
=16	=16	=16	=16	=16	=16
8F\L	4A\]	4f/	.	8dd\L	.
8E\J	.	.	.	8ee\	.
*	*clefG2	*	*	*	*
4D\	8d/L	4r	.	8ff\	.
.	8e/J	.	.	8gg\J	.
2r	8f/L	4r	.	8aa\L	.
.	8e/	.	.	8dd\J	.
.	8f/	4ff\	.	[>4ddd\	.
.	8g/J	.	.	.	.
=17	=17	=17	=17	=17	=17
1r	8a/L	4ee\	.	4ddd\]	.
.	8b-/	.	.	.	.
.	8a/	4ee-X\	.	2ccc\	.
.	8g/J	.	.	.	.
.	8f/L	4dd\	.	.	.
.	8d/	.	.	.	.
.	8g/	4dd-X\	.	[>4bb-\	.
.	8f/J	.	.	.	.
=18	=18	=18	=18	=18	=18
1r	8e/L	4cc\	.	8bb-\L]	.
.	8c/	.	.	8ddd\	.
.	8d/	2cc\	.	8ccc\	.
.	8e/J	.	.	8bb-\J	.
.	4f/	.	.	8aa\L	.
.	.	.	.	8ff\	.
.	4r	8dd\L	.	8bb-\	.
.	.	8cc\J	.	8aa\J	.
!LO:LB:g=original	!LO:LB:g=original	!	!	!	!
=19	=19	=19	=19	=19	=19
1r	1r	8b-/L	.	8gg\L	.
.	.	8g/	.	8bb-\	.
.	.	8cc/	.	8aa\	.
.	.	8b-/J	.	8gg\J	.
.	.	4a/	.	8ff\L	.
.	.	.	.	8dd\	.
.	.	8b-/L	.	8gg\	.
.	.	8a/J	.	8ff\J	.
=20	=20	=20	=20	=20	=20
!	!LO:CL:ed	!	!	!	!
*	*clefF4	*	*	*	*
4DD/	2r	8g/L	.	8ee\L	.
.	.	8e/	.	8gg\	.
2D^<\	.	8a/	.	8ff\	.
.	.	8g/J	.	8ee\J	.
.	[>2A\	8f/L	.	4dd\	.
.	.	8a/	.	.	.
4D\	.	8g/	.	4r	.
.	.	8f/J	.	.	.
=21	=21	=21	=21	=21	=21
4C/	8A\L]	8e/	.	1r	.
.	8G#X\	8e/L	.	.	.
4BBn/	8A\	8f#X/	.	.	.
.	8Bn\J	8g#X/J	.	.	.
4AA/	4c\	8a/L	.	.	.
.	.	8cc/	.	.	.
!	!LO:TX:b:Bi:t=V.S:problem=wspólne dla Secondo	!	!	!	!
4F\	[>4d\	8bn/	.	.	.
!	!	!LO:TX:a:Bi:t=V.S:problem=wspólne dla Primo	!	!	!
.	.	8a/J	.	.	.
!!LO:PB:g=original
=22	=22	=22	=22	=22	=22
2.E\	8d\L]	8g#X\L	.	4ee\	.
.	8c\	8a\	.	.	.
.	8Bn\	8bn\	.	[>4eee\	.
.	8A\J	8cc\J	.	.	.
.	2G#X\	8dd\L	.	8eee\L]	.
.	.	8ee\J	.	8ddd\	.
4D\	.	[>4ff\	.	8ccc\	.
.	.	.	.	8bbn\J	.
=23	=23	=23	=23	=23	=23
8E\L	4A\	4ff\]	.	8ccc\L	.
8D\J	.	.	.	8bbn\J	.
4C/	8Bn\L	2ee\	.	4aa\	.
.	8c\J	.	.	.	.
8D/L	8r	.	.	8bb\L	.
8C/J	8G#X\L	.	.	8aa\J	.
4BBn/	8A\	4dd\	.	[>4gg#X\	.
.	8B\J	.	.	.	.
=24	=24	=24	=24	=24	=24
8C/L	4E\	8ee\L	.	8gg#\L]	.
8BBn/J	.	8dd\J	.	8aa\	.
4AA/	2e\	4cc\	.	8bbn\	.
.	.	.	.	8ccc\J	.
4BB/	.	8dd\L	.	8r	.
.	.	8cc\J	.	8gg#X\L	.
8AA/L	[>4E\	4bn\	.	8aa\	.
8GG#X/J	.	.	.	8bb\J	.
=25	=25	=25	=25	=25	=25
8AA/L	8E\L]	4cc\	.	4aa\	.
8BBn/	8d\	.	.	.	.
8C/	8c\	4r	.	2a/	.
8D/J	8Bn\J	.	.	.	.
8E\L	4A\	2g/	.	.	.
8G\	.	.	.	.	.
8F\	[>4A\	.	.	8bn\L	.
8E\J	.	.	.	8cc#X\J	.
=26	=26	=26	=26	=26	=26
4D\	8A\L]	8f/L	.	8dd\L	.
.	8B-X\	8g/	.	8ee\	.
2DD/	8A\	8f/	.	8ffn\	.
.	8G\J	8e/J	.	8gg\J	.
.	4F\	4d/	.	8aa\L	.
.	.	.	.	8ccc\	.
4D\	4r	8e/L	.	8bb-X\	.
.	.	8f#X/J	.	8aa\J	.
=27	=27	=27	=27	=27	=27
8GG/L	8r	4g/	.	4bb-\	.
8AA/	8c\L	.	.	.	.
8BB-X/	8B-X\	4r	.	2g/	.
8C/J	8A\J	.	.	.	.
8D\L	4G\	2fn/	.	.	.
8F\	.	.	.	.	.
8E\	[>4G\	.	.	8a/L	.
8D\J	.	.	.	8bn/J	.
=28	=28	=28	=28	=28	=28
4C/	8G\L]	8e/L	.	8cc\L	.
.	8A\	8f/	.	8dd\	.
4CC/	8G\	8e/	.	8ee\	.
.	8F\J	8d/J	.	8ff\J	.
8r	4E\	4c/	.	8gg\L	.
8CC/L	.	.	.	8bb-X\	.
8DD/	8F\L	4r	.	8aa\	.
8EE/J	8G\J	.	.	8gg\J	.
=29	=29	=29	=29	=29	=29
4FF/	4A\	4c/	.	8ff\L	.
.	.	.	.	8aa\	.
4AA/	4r	2cc^<\	.	8gg\	.
.	.	.	.	8ff\J	.
4GG/	2r	.	.	8ee\L	.
.	.	.	.	8dd\	.
4C/	.	4b-\	.	8ee\	.
.	.	.	.	8gg\J	.
!	!	!LO:LB:g=original	!	!LO:LB:g=original	!
=30	=30	=30	=30	=30	=30
4FF/	8r	4a/	.	8ff\L	.
.	8C\L	.	.	8ddd\	.
4r	8D\	4g/	.	8ccc\	.
.	8E\J	.	.	8bb-\J	.
4r	8F\L	4f/	.	4aa\	.
.	8A\	.	.	.	.
4BBBn/	8G\	4dd\	.	4r	.
.	8F\J	.	.	.	.
!LO:LB:g=original	!LO:LB:g=original	!	!	!	!
=31	=31	=31	=31	=31	=31
8CC/L	8E\L	2.cc\	.	1r	.
8DD/J	8F\	.	.	.	.
4EE/	8G\	.	.	.	.
.	8A\J	.	.	.	.
8DD/L	8B-\L	.	.	.	.
8EE/	8c\J	.	.	.	.
8FF/	[>4d\	4b-\	.	.	.
8GG/J	.	.	.	.	.
=32	=32	=32	=32	=32	=32
4AA/	4d\]	8cc\L	.	1r	.
.	.	8b-\J	.	.	.
4F\	2c\	4a\	.	.	.
4GG/	.	8b-/L	.	.	.
.	.	8a/J	.	.	.
8D\L	[>4B-\	4g/	.	.	.
8E\J	.	.	.	.	.
=33	=33	=33	=33	=33	=33
4FF/	4B-\]	8a/L	.	4ff\	.
.	.	8g/	.	.	.
4r	8A\L	8f/	.	2fff^<\	.
.	8G\J	8g/J	.	.	.
2r	4F\	8a/L	.	.	.
.	.	8g/	.	.	.
.	8E\L	8a/	.	4ff\	.
.	8D\J	8bn/J	.	.	.
=34	=34	=34	=34	=34	=34
1r	4C\	8r	.	4ee\	.
.	.	8G/L	.	.	.
.	4F\	8A/	.	4dd\	.
.	.	8Bn/J	.	.	.
.	4.E\	8c/L	.	4cc\	.
.	.	8e/	.	.	.
.	.	8d/	.	4aa\	.
.	8F#X\	8c/J	.	.	.
=35	=35	=35	=35	=35	=35
2r	4G\	8Bn/L	.	2.gg\	.
.	.	8c/	.	.	.
.	2B-X\	8d/	.	.	.
.	.	8e/J	.	.	.
4CC/	.	8f/L	.	.	.
.	.	8g/J	.	.	.
[<4C/	4A\	4a/	.	4ff\	.
=36	=36	=36	=36	=36	=36
4C/]	4G\	8b-X/L	.	8gg\L	.
.	.	8a/J	.	8ff\J	.
4BB-/	[>4c\	4g/	.	4ee\	.
4AA/	8c\L]	4f/	.	8ff\L	.
.	8d\	.	.	8cc\	.
4GG/	8c\	4g/	.	8dd\	.
.	8B-\J	.	.	8ee\J	.
=37	=37	=37	=37	=37	=37
4FF/	8A\L	4a/	.	8ff\L	.
.	8G\J	.	.	8aa\	.
4D/	4F\	4bn\	.	8gg\	.
.	.	.	.	8ff\J	.
[<2C/	2r	4cc\	.	8ee\L	.
.	.	.	.	8ff\	.
.	.	8e/L	.	8gg\	.
.	.	8f/J	.	8aa\J	.
=38	=38	=38	=38	=38	=38
4C/]	4F\	8g/L	.	8bb-\L	.
.	.	8a/J	.	8ccc\J	.
4BB-/	2f\	4b-/	.	2ddd\	.
8C/L	.	8a/L	.	.	.
8BB-/J	.	8b-/J	.	.	.
4AA/	4f\	4cc/	.	[>4ccc\	.
=39	=39	=39	=39	=39	=39
4GG/	4e\	8b-\L	.	4ccc\]	.
.	.	8cc\J	.	.	.
8AA/L	4d\	4dd\	.	2bb-\	.
8BB-/J	.	.	.	.	.
!	!	!LO:TX:a:t=P:problem=mixed beam	!	!	!
4C/	4.c\	8ee\L	.	.	.
.	.	8e/	.	.	.
4CC/	.	8f/	.	8aa\L	.
.	8B-\	8g/J	.	8gg\J	.
!	!	!LO:LB:g=original	!	!LO:LB:g=original	!
=40	=40	=40	=40	=40	=40
4FF/	4A\	8a/L	.	4ff\	.
.	.	8g/J	.	.	.
4r	8A\L	4f/	.	8r	.
.	8B-\J	.	.	8fff\	.
4r	8c\L	8r	.	8eee\L	.
.	8d\	8ff\L	.	8ddd\	.
4F\	8e\	8ee\	.	8ccc\	.
.	8f\J	8dd\J	.	8bb-\J	.
!LO:LB:g=original	!LO:LB:g=original	!	!	!	!
=41	=41	=41	=41	=41	=41
4E\	4g\	8cc\L	.	8aa\L	.
.	.	8b-\	.	8gg\J	.
2EE/	8G\L	8a\	.	8r	.
.	8A\J	8g\J	.	8eee\	.
.	8B-\L	8r	.	8ddd\L	.
.	8c\	8ee\L	.	8ccc\	.
4E\	8d\	8dd\	.	8bb-\	.
.	8e\J	8cc\J	.	8aa\J	.
=42	=42	=42	=42	=42	=42
4D\	4f\	8b-/L	.	8gg\L	.
.	.	8a/	.	8ff\J	.
2DD/	8F\L	8g/	.	8r	.
.	8G\J	8f/J	.	8ddd\	.
.	8A\L	8r	.	8ccc\L	.
.	8Bn\	8dd\L	.	8bbn\	.
4GG/	8c\	8cc\	.	8aa\	.
.	8d\J	8bn\J	.	8gg\J	.
=43	=43	=43	=43	=43	=43
8CC/L	4e\	8a/L	.	4ff\	.
8GG/	.	8g/J	.	.	.
8AA/	[>4G\	4f/	.	8ee\L	.
8BBn/J	.	.	.	8dd\J	.
4C/	8G\L]	4e/	.	4cc\	.
.	8e\	.	.	.	.
4r	8d\	8r	.	4ccc\	.
.	8c\J	8ee\	.	.	.
=44	=44	=44	=44	=44	=44
1r	4d\	8ff\L	.	8bb-\L	.
.	.	8ee\	.	8ddd\	.
.	8d\L	8ff\	.	8ccc\	.
.	8e\J	8gg\J	.	8bb-\J	.
.	4f\	4cc\	.	8aa\L	.
.	.	.	.	8ccc\	.
.	4A\	8r	.	8bb-\	.
.	.	8cc\	.	8aa\J	.
=45	=45	=45	=45	=45	=45
2r	8B-\L	4dd\	.	8gg\L	.
.	8d\	.	.	8bb-\	.
.	8c\	4ee\	.	8aa\	.
.	8B-\J	.	.	8gg\J	.
8r	4A\	8r	.	4ff\	.
8FF/L	.	8cc\L	.	.	.
8GG/	8B-\L	8b-\	.	4r	.
8AA/J	8c\J	8a\J	.	.	.
=46	=46	=46	=46	=46	=46
8BB-/L	4d\	8g/L	.	1r	.
8AA/	.	8b-/	.	.	.
8BB-/	8D\L	8a/	.	.	.
8C/J	8E\J	8g/J	.	.	.
8D\L	4F\	8f/L	.	.	.
8F\	.	8a/	.	.	.
8E\	8r	8g/	.	.	.
8D\J	8Bn\	8f/J	.	.	.
=47	=47	=47	=47	=47	=47
4C/	8c\L	4e/	.	8r	.
.	8e\	.	.	8gg\L	.
4r	8d\	2cc\	.	8ff\	.
.	8c\J	.	.	8ee\J	.
2r	8f\L	.	.	8dd\L	.
.	8d\	.	.	8ff\	.
.	8g\	[>4bn\	.	8ee\	.
.	8f\J	.	.	8dd\J	.
=48	=48	=48	=48	=48	=48
1r	4e\	8b\L]	.	8cc\L	.
.	.	8a\	.	8eee\	.
.	4r	8bny\	.	8ddd\	.
.	.	8cc\J	.	8ccc\J	.
.	2r	4dd\	.	8bbn\L	.
.	.	.	.	8ddd\	.
.	.	8ee\L	.	8ccc\	.
.	.	8dd\J	.	8bb\J	.
!	!	!LO:LB:g=original	!	!LO:LB:g=original	!
=49	=49	=49	=49	=49	=49
4EE/	2r	8cc\L	.	8aa\L	.
.	.	8ee\	.	8ccc\	.
2E^<\	.	8dd\	.	8bbn\	.
.	.	8cc\J	.	8aa\J	.
.	[>2e\	8bn\L	.	8gg#X\L	.
.	.	8dd\	.	8bb\	.
4D\	.	8cc\	.	8aa\	.
.	.	8b\J	.	8gg#\J	.
=50	=50	=50	=50	=50	=50
4C/	8e\L]	8a/	.	4aa\	.
.	8G#X\	8e/L	.	.	.
4BBn/	8A\	8f#X/	.	8ee\L	.
.	8Bn\J	8g#X/J	.	8dd\J	.
4AA/	4c\	8a/L	.	4cc\	.
.	.	8cc/	.	.	.
4F\	[>4d\	8bn/	.	4r	.
.	.	8a/J	.	.	.
=51	=51	=51	=51	=51	=51
2.E\	8d\L]	8g#X/L	.	1r	.
.	8c\	8a/	.	.	.
.	8Bn\	8bn/	.	.	.
.	8A\J	8cc/J	.	.	.
.	[>2G#X\	8dd\L	.	.	.
.	.	8ee\J	.	.	.
4D\	.	[>4ff\	.	.	.
!LO:LB:g=original	!LO:LB:g=original	!	!	!	!
=52	=52	=52	=52	=52	=52
8E\L	4G#\]	4ff\]	.	4r	.
8D\J	.	.	.	.	.
4C/	4A\	4ee\	.	2eee^<\	.
4BBn/	4Bn\	8gg#X\L	.	.	.
.	.	8aa\J	.	.	.
4E\	8A\L	4bbn\	.	4ddd\	.
.	8G#X\J	.	.	.	.
=53	=53	=53	=53	=53	=53
4AA/	4A\	4aa\	.	4ccc\	.
2F\	4r	8ee\L	.	4bbn\	.
.	.	8dd\J	.	.	.
.	2r	8cc\L	.	4aa\	.
.	.	8dd\	.	.	.
8E\L	.	8cc\	.	[>4fff\	.
8D\J	.	8bn\J	.	.	.
=54	=54	=54	=54	=54	=54
8C/L	4r	8a\L	.	4fff\]	.
8BBn/J	.	8bn\	.	.	.
4AA/	2A^<\	8cc\	.	8eee\L	.
.	.	8dd\J	.	8ddd\J	.
2r	.	4ee\	.	4ccc\	.
.	4A\	4ff#X\	.	8ddd\L	.
.	.	.	.	8ccc\J	.
=55	=55	=55	=55	=55	=55
8r	4G\	4gg\	.	4.bbn\	.
8BBBn/L	.	.	.	.	.
8CC#X/	4F#X\	2bn\	.	.	.
8DD#X/J	.	.	.	8aa\	.
8EE/L	4E\	.	.	4gg\	.
8GG/	.	.	.	.	.
8FF#X/	4c\	[<4a\	.	8ff#X\L	.
8EE/J	.	.	.	8gg\J	.
=56	=56	=56	=56	=56	=56
8DD#X/L	2.Bn\	8a/L]	.	4aa\	.
8EE/	.	8g/	.	.	.
8FF#X/	.	8f#X/	.	8aa\L	.
8GG/J	.	8e/J	.	8gg\J	.
8AA/L	.	4.d#X/	.	2ff#Xt>\	.
8BBn/J	.	.	.	.	.
[<4C/	4A\	.	.	.	.
.	.	8d#/	.	.	.
!	!	!LO:LB:g=original	!	!LO:LB:g=original	!
=57	=57	=57	=57	=57	=57
!	!	!LO:TX:a:t=P:problem=W źródle 4 [palcowanie] dopisane ołówkiem	!	!	!
4C/]	8Bn\L	4e/	.	4ee\	.
.	8A\J	.	.	.	.
2BBn/	4G\	8f#X/L	.	4r	.
.	.	8g/J	.	.	.
.	8A\L	4f#/	.	2r	.
.	8G\J	.	.	.	.
4AA/	4F#X\	8g/L	.	.	.
.	.	8a/J	.	.	.
=58	=58	=58	=58	=58	=58
8BBn/L	8G\L	4g/	.	4r	.
8AA/J	8F#X\	.	.	.	.
4GG/	8E\	8a/L	.	2ee^<\	.
.	8D\J	8bn/J	.	.	.
2r	8C/L	4e/	.	.	.
.	8D/	.	.	.	.
.	8C/	4r	.	[>4dd\	.
.	8BBn/J	.	.	.	.
=59	=59	=59	=59	=59	=59
1r	8AA/L	4A/	.	4dd\]	.
.	8GG#X/	.	.	.	.
.	8AA/	2a/	.	4cc\	.
.	8BBn/J	.	.	.	.
.	4C/	.	.	2bnt>\	.
.	4r	4g/	.	.	.
=60	=60	=60	=60	=60	=60
1r	1r	8f#X/L	.	4a/	.
.	.	8g/	.	.	.
.	.	8f#/	.	2aa^<\	.
.	.	8e/J	.	.	.
.	.	4d/	.	.	.
.	.	4bn\	.	[>4gg\	.
!LO:LB:g=original	!LO:LB:g=original	!	!	!	!
=61	=61	=61	=61	=61	=61
4DD/	1r	2a/	.	4gg\]	.
2D^<\	.	.	.	4ff#X\	.
.	.	4e/	.	8gg\L	.
.	.	.	.	8ff#\J	.
[<4C/	.	[<4f#X/	.	4ee\	.
=62	=62	=62	=62	=62	=62
4C/]	4r	4f#/]	.	8ff#X\L	.
.	.	.	.	8ee\J	.
4BBn/	2G\	4g/	.	[>4dd\	.
8C/L	.	4e/	.	8dd\L]	.
8BB/J	.	.	.	8ee\	.
4AA/	4A\	4f#X/	.	8dd\	.
.	.	.	.	8cc\J	.
=63	=63	=63	=63	=63	=63
4GG/	4Bn\	8g/L	.	4bn\	.
.	.	8d/	.	.	.
4r	8B\L	8e/	.	4r	.
.	8A\J	8f#X/J	.	.	.
4r	8G\L	8g/L	.	4ddd\	.
.	8F#X\J	8bn/	.	.	.
(<4EE/	[>4E\	8a/	.	4dd\	.
.	.	8g/J	.	.	.
=64	=64	=64	=64	=64	=64
4AAA/)	4E\]	8a/L	.	4cc\	.
.	.	8c/	.	.	.
4AA/	8A\L	8d/	.	4r	.
.	8G\J	8e/J	.	.	.
4r	8F#X\L	8f#X/L	.	4ccc\	.
.	8E\J	8a/	.	.	.
(<4DD/	[>4D\	8g/	.	4cc\	.
.	.	8f#/J	.	.	.
=65	=65	=65	=65	=65	=65
4GGG/)	8D\L]	4g/	.	8bn\	.
.	8G\	.	.	8b\L	.
4GG/	8A\	4d/	.	8cc\	.
.	8Bn\J	.	.	8dd\J	.
2r	8c\L	4r	.	8ee\L	.
.	8e\	.	.	8gg\	.
.	8d\	[<4g/	.	8ff#X\	.
.	8c\J	.	.	8ee\J	.
=66	=66	=66	=66	=66	=66
1r	4.Bn\	4g/]	.	8dd\L	.
.	.	.	.	8ee\	.
.	.	8dd\L	.	8ff#X\	.
.	8A\	8cc\J	.	8gg\J	.
.	4G\	4bn\	.	8aa\L	.
.	.	.	.	8bbn\J	.
!	!LO:TX:b:Bi:t=V.S:problem=wspólne dla Secondo	!	!	!LO:TX:b:Bi:t=V.S:problem=wspólne dla Primo	!
.	4F#X\	4a\	.	[>4ccc\	.
!!LO:LB:g=original
=67	=67	=67	=67	=67	=67
1r	8G\L	8bn/L	.	4ccc\]	.
.	8A\	8a/J	.	.	.
.	8Bn\	4g/	.	2bbn\	.
.	8c\J	.	.	.	.
.	8d\L	2r	.	.	.
.	8e\J	.	.	.	.
.	[>4f\	.	.	4aa\	.
=68	=68	=68	=68	=68	=68
1r	4f\]	1r	.	8gg\L	.
.	.	.	.	8aa\	.
.	2e\	.	.	8bbn\	.
.	.	.	.	8ccc\J	.
.	.	.	.	8ddd\L	.
.	.	.	.	8eee\J	.
.	4d\	.	.	[>4fff\	.
=69	=69	=69	=69	=69	=69
8C\L	8e\L	1r	.	4fff\]	.
8D\	8d\J	.	.	.	.
8E\	4c\	.	.	2eee\	.
8F\J	.	.	.	.	.
8G\L	2r	.	.	.	.
8A\J	.	.	.	.	.
[>4B-\	.	.	.	4ddd\	.
=70	=70	=70	=70	=70	=70
4B-\]	1r	8cc\L	.	8eee\L	.
.	.	8dd\	.	8ddd\J	.
2A\	.	8ee\	.	4ccc\	.
.	.	8ff\J	.	.	.
.	.	8gg\L	.	2r	.
.	.	8aa\J	.	.	.
4G\	.	4bb-X\	.	.	.
=71	=71	=71	=71	=71	=71
4F\	1r	4aa\	.	1r	.
8G\L	.	2a/	.	.	.
8F\J	.	.	.	.	.
8E\L	.	.	.	.	.
8G\	.	.	.	.	.
8F\	.	8bn\L	.	.	.
8E\J	.	8cc#X\J	.	.	.
=72	=72	=72	=72	=72	=72
4D\	4d\	8dd\L	.	1r	.
.	.	8b-X\	.	.	.
4r	2D^<\	8a\	.	.	.
.	.	8g\J	.	.	.
2r	.	8f/L	.	.	.
.	.	8g/	.	.	.
.	4E\	8f/	.	.	.
.	.	8e/J	.	.	.
=73	=73	=73	=73	=73	=73
1r	4F\	4d/	.	8r	.
.	.	.	.	8aa\L	.
.	4G\	4r	.	8gg\	.
.	.	.	.	8ff\J	.
.	4A\	2r	.	8ee\L	.
.	.	.	.	8cc#X\	.
.	4C#X/	.	.	8dd\	.
.	.	.	.	8ee\J	.
=74	=74	=74	=74	=74	=74
1r	2.D\	1r	.	8ff\L	.
.	.	.	.	8ee\	.
.	.	.	.	8dd\	.
.	.	.	.	8cc\J	.
.	.	.	.	8b-/L	.
.	.	.	.	8a/J	.
.	4E\	.	.	[<4g/	.
!	!	!LO:LB:g:original	!	!LO:LB:g:original	!
=75	=75	=75	=75	=75	=75
1r	8D\L	1r	.	4g/]	.
.	8E\J	.	.	.	.
.	4F\	.	.	2a/	.
.	8E\L	.	.	.	.
.	8F\J	.	.	.	.
.	4G\	.	.	[<4bn/	.
=76	=76	=76	=76	=76	=76
1r	8A\L	4a/	.	4b/]	.
.	8G\	.	.	.	.
.	8F\	2A^</	.	4cc\	.
.	8E\J	.	.	.	.
!LO:LB:g=original	!LO:LB:g=original	!	!	!	!
.	8G\L	.	.	8bn\L	.
.	8F\	.	.	8cc\J	.
.	8E\	4Bn/	.	4dd\	.
.	8D\J	.	.	.	.
=77	=77	=77	=77	=77	=77
8r	4C/	4c/	.	4ee\	.
8E\L	.	.	.	.	.
8D\	4r	4d/	.	8ff\L	.
8C\J	.	.	.	8ee\J	.
8BBn/L	4r	4e/	.	8dd\L	.
8GG#X/	.	.	.	8bn\	.
8AA/	[>4E\	4G#X/	.	8cc\	.
8BB/J	.	.	.	[>8dd\J	.
=78	=78	=78	=78	=78	=78
!	!	!	!	!LO:TX:a:t=P:problem=mixed beam	!
8C/L	4E\]	2.A/	.	8dd\L]	.
8BBn/	.	.	.	8e/	.
8AA/	2E\	.	.	8cc\	.
8GGn/J	.	.	.	8bn\J	.
8FF/L	.	.	.	4a/	.
8EE/J	.	.	.	.	.
[<4DD/	4F\	4Bn/	.	4r	.
=79	=79	=79	=79	=79	=79
4DD/]	4F#X\	8A/L	.	2r	.
.	.	8Bn/J	.	.	.
2EE/	4G\	4c/	.	.	.
.	4G#X\	8B/L	.	4ddd\	.
.	.	8c/J	.	.	.
4FF/	4A\	4d/	.	[>4dd^<\	.
=80	=80	=80	=80	=80	=80
8EE/L	4B-X\	8e/L	.	4dd\]	.
8FF/J	.	8d/J	.	.	.
4GG/	8A\L	4c/	.	4ee\	.
.	8G\J	.	.	.	.
4AA/	4F\	8r	.	4ff\	.
!	!	!LO:TX:a:t=P:problem=mixed beam	!	!	!
.	.	8c/L	.	.	.
4CC/	4E\	8cc\	.	4gg\	.
.	.	8b-X\J	.	.	.
=81	=81	=81	=81	=81	=81
8FF/L	4F\	8a/L	.	4aa\	.
8GG/	.	8b-/	.	.	.
8FF/	8D\L	8a/	.	4cc#X\	.
8EE/J	8E\J	8g/J	.	.	.
4DD/	8F\L	4f/	.	[>2dd\	.
.	8E\	.	.	.	.
4r	8D\	8f/L	.	.	.
.	8C\J	8e/J	.	.	.
=82	=82	=82	=82	=82	=82
1r	8BB-/L	8d/L	.	4dd\]	.
.	8AA/J	8c/J	.	.	.
.	2GG/	2B-/	.	4ee\	.
.	.	.	.	8dd\L	.
.	.	.	.	8ee\J	.
.	8AA/L	8b-\L	.	[>4ff\	.
.	8BB-/J	8a\J	.	.	.
=83	=83	=83	=83	=83	=83
4AAA/	4C/	4g/	.	8ff\L]	.
.	.	.	.	8ee\	.
2AA^</	8F\L	8a/L	.	8ff\	.
.	8E\J	8g/J	.	8gg\J	.
.	4D\	4f/	.	8aa\L	.
.	.	.	.	8gg\	.
4GG/	4C#X/	[<4a/	.	8ff\	.
.	.	.	.	8ee\J	.
!	!	!LO:LB:g:original	!	!LO:LB:g:original	!
=84	=84	=84	=84	=84	=84
4FF/	8D\L	4a/]	.	4dd\	.
.	8B-\	.	.	.	.
4EE/	8A\	2d/	.	4r	.
.	8G\J	.	.	.	.
!LO:LB:g=original	!LO:LB:g=original	!	!	!	!
4DD/	4F\	.	.	2r	.
4BB-/	4G\	4e/	.	.	.
=85	=85	=85	=85	=85	=85
4.AA/	4A\	4f/	.	4dd\	.
.	4B-\	4g/	.	2ddd\	.
8GG/	.	.	.	.	.
4FF/	4A\	4a/	.	.	.
4EE/	4G#X\	4bn/	.	4ddd\	.
=86	=86	=86	=86	=86	=86
8AA/L	8A\L	4cc\	.	4ccc\	.
8GG#X/	8Bn\	.	.	.	.
8AA/	8c\	8ee\L	.	4bbn\	.
8BBn/J	8d\J	8dd\J	.	.	.
4C/	2e\	4cc\	.	4aa\	.
4C#X/	.	4b-X\	.	4gg\	.
=87	=87	=87	=87	=87	=87
4D/	4f\	4a\	.	8ff\L	.
.	.	.	.	8aa\	.
4FF/	4A\	2dd\	.	8gg\	.
.	.	.	.	8ff\J	.
4GG/	4B-\	.	.	8ee\L	.
.	.	.	.	8gg\	.
[<4AA/	8A\L	4cc#X\	.	8ff\	.
.	8G\J	.	.	8ee\J	.
=88	=88	=88	=88	=88	=88
8AA/L]	4F\	4dd\	.	8dd\L	.
8GG/	.	.	.	8a\	.
8FF/	4r	[<4d/	.	8bn\	.
8EE/J	.	.	.	8cc#X\J	.
4DD/	2r	8d/L]	.	4dd\	.
.	.	8f/	.	.	.
4CC/	.	8g/	.	4r	.
.	.	8a/J	.	.	.
=89	=89	=89	=89	=89	=89
4BBB-/	8r	4b-\	.	1r	.
.	8D\L	.	.	.	.
4r	8E\	2b-^<\	.	.	.
.	8F\J	.	.	.	.
2r	8G\L	.	.	.	.
.	8BB-\	.	.	.	.
.	8C\	4a/	.	.	.
.	8D\J	.	.	.	.
=90	=90	=90	=90	=90	=90
4GGG/	4E\	4g/	.	8r	.
.	.	.	.	8b-\L	.
2GG^</	4r	4f/	.	8cc\	.
.	.	.	.	8dd\J	.
.	2r	4e/	.	8ee\L	.
.	.	.	.	8g\	.
4FF/	.	4d/	.	8a\	.
.	.	.	.	8b-\J	.
=91	=91	=91	=91	=91	=91
4EE/	8r	4c/	.	4cc\	.
.	8E\L	.	.	.	.
4DD/	8F\	2cc^<\	.	4r	.
.	8G\J	.	.	.	.
4CC/	8A\L	.	.	2r	.
.	8C\	.	.	.	.
4r	8D\	4b-\	.	.	.
.	8E\J	.	.	.	.
=92	=92	=92	=92	=92	=92
4AAA/	4F\	4a/	.	8r	.
.	.	.	.	8cc\L	.
2AA^</	4r	4g/	.	8dd\	.
.	.	.	.	8ee\J	.
.	2r	4f/	.	8ff\L	.
.	.	.	.	8a\	.
4GG/	.	4e/	.	8b-\	.
.	.	.	.	8cc\J	.
!!LO:LB:g=original
=93	=93	=93	=93	=93	=93
4FF/	8r	4d/	.	4dd\	.
.	8F\L	.	.	.	.
4EE/	8G\	2dd^<\	.	4r	.
.	8A\J	.	.	.	.
4DD/	8B-\L	.	.	2r	.
.	8D\	.	.	.	.
4r	8E\	4cc\	.	.	.
.	8F\J	.	.	.	.
=94	=94	=94	=94	=94	=94
4BBB-/	4.G\	4b-/	.	8r	.
.	.	.	.	8dd\L	.
2BB-^</	.	4a/	.	8ee\	.
.	8A\	.	.	8ff\J	.
.	4B-\	4g/	.	8gg\L	.
.	.	.	.	8b-\	.
4AA/	4r	4f/	.	8cc\	.
.	.	.	.	8dd\J	.
=95	=95	=95	=95	=95	=95
4GG/	8r	4e/	.	4ee\	.
.	8G\L	.	.	.	.
4FF/	8A\	8f/L	.	4dd\	.
.	8B-\J	8g/J	.	.	.
4EE/	8c\L	4a/	.	4cc\	.
.	8E\	.	.	.	.
4DD/	8F\	4r	.	4b-\	.
.	8G\J	.	.	.	.
=96	=96	=96	=96	=96	=96
4CC/	4A\	8r	.	4a/	.
.	.	8cc\L	.	.	.
4r	4G\	8dd\	.	2aa^<\	.
.	.	8ee\J	.	.	.
2r	4F\	8ff\L	.	.	.
.	.	8a\	.	.	.
.	4E\	8b-\	.	4gg\	.
.	.	8cc\J	.	.	.
=97	=97	=97	=97	=97	=97
8r	4D\	4dd\	.	4ff\	.
8FF/L	.	.	.	.	.
8GG/	2d^<\	4r	.	4ee\	.
8AA/J	.	.	.	.	.
8BB-/L	.	8r	.	4dd\	.
8DD/	.	8f/L	.	.	.
8EE/	4c\	8g/	.	4r	.
8FF/J	.	8a/J	.	.	.
=98	=98	=98	=98	=98	=98
4GG/	4B-\	8b-\L	.	4r	.
.	.	8dd\	.	.	.
4r	4A\	8ee\	.	2bb-^<\	.
.	.	8ff\J	.	.	.
2r	4G\	8gg\L	.	.	.
.	.	8b-\	.	.	.
.	4F\	8cc\	.	4aa\	.
.	.	8dd\J	.	.	.
=99	=99	=99	=99	=99	=99
8r	4E\	4ee\	.	4gg\	.
8FF/L	.	.	.	.	.
8AA/	2e^<\	4r	.	4ff\	.
8BB-/J	.	.	.	.	.
8C/L	.	8r	.	4ee\	.
8EE/	.	8g\L	.	.	.
8FF/	4d\	8a\	.	4r	.
8GG/J	.	8b-\J	.	.	.
=100	=100	=100	=100	=100	=100
4AA'</	4c\	8cc\L	.	4r	.
.	.	8ee\	.	.	.
4GG'</	4B-\	8ff\	.	2ccc^<\	.
.	.	8gg\J	.	.	.
4FF'</	4A\	8aa\L	.	.	.
.	.	8cc\	.	.	.
4r	4G\	8dd\	.	4bb-\	.
.	.	8ee\J	.	.	.
!LO:LB:g=original	!LO:LB:g=original	!	!	!	!
=101	=101	=101	=101	=101	=101
8r	4F\	4ff'>\	.	4aa\	.
8AA/L	.	.	.	.	.
8BB-/	2f^<\	4ee'>\	.	4gg\	.
8C/J	.	.	.	.	.
8D/L	.	8dd'>\L	.	4ff\	.
8FF/	.	8a\	.	.	.
8GG/	4e\	8b-\	.	4r	.
8AA/J	.	8cc\J	.	.	.
!	!	!LO:LB:g:original	!	!LO:LB:g:original	!
=102	=102	=102	=102	=102	=102
!	!	!LO:TX:a:t=P:problem=W źródle 5 [palcowanie] dopisane ołówkiem	!	!	!
4BB-'</	4d\	8dd\L	.	4r	.
.	.	8ff\	.	.	.
4AA'</	4c\	8gg\	.	2ddd^<\	.
.	.	8aa\J	.	.	.
4GG'</	4B-\	8bb-\L	.	.	.
.	.	8dd\	.	.	.
4r	4A\	8ee\	.	4ccc\	.
.	.	8ff\J	.	.	.
=103	=103	=103	=103	=103	=103
8r	4G\	4gg\	.	4.bb-\	.
8BB-/L	.	.	.	.	.
8C/	4r	4ff\	.	.	.
8D/J	.	.	.	8aa\	.
8E\L	4r	4ee\	.	4gg\	.
8F\	.	.	.	.	.
8G\	[>4d\	4a/	.	[>4ff\	.
8A\J	.	.	.	.	.
=104	=104	=104	=104	=104	=104
4B-\	4d\]	4g/	.	8ff\L]	.
.	.	.	.	8ee\	.
8A\L	2d\	8a/L	.	8ff\	.
8G\J	.	8b-/J	.	8gg\J	.
4A\	.	4a/	.	8ff\L	.
.	.	.	.	8ee\	.
4AA/	4c#X\	4g/	.	8dd\	.
.	.	.	.	8cc#X\J	.
=105	=105	=105	=105	=105	=105
4D\	4d\	8f/L	.	4dd\	.
.	.	8g/	.	.	.
4r	8A\L	8f/	.	4r	.
.	8G\J	8e/J	.	.	.
2r	8F\L	4d/	.	4a/	.
.	8G\	.	.	.	.
.	8F\	4r	.	[>4aa^<\	.
.	8E\J	.	.	.	.
=106	=106	=106	=106	=106	=106
2r	4D\	4d/	.	4aa\]	.
.	4r	2dd^<\	.	4gg\	.
4AAA/	2r	.	.	4ff\	.
!LO:TX:a:Bi:t=V.S:problem=wspólne dla Secondo	!	!	!	!LO:TX:b:Bi:t=V.S:problem=wspólne dla Primo	!
[<4AA^</	.	[>4cc\	.	4ee\	.
!!LO:PB:g=original
=107	=107	=107	=107	=107	=107
4AA/]	4D\	4cc\]	.	4dd\	.
4GG/	2d^<\	8b-\L	.	4bb-\	.
.	.	8cc\J	.	.	.
4FF/	.	4dd\	.	4.aa\	.
4EE/	4c#X\	[<4a/	.	.	.
.	.	.	.	8gg\	.
=108	=108	=108	=108	=108	=108
4DD/	4d\	8a/L]	.	8ff\L	.
.	.	8g/	.	8a\	.
2D/	8A\L	8f/	.	8bn\	.
.	8G\J	8e/J	.	8cc#X\J	.
.	4F\	2r	.	8dd\L	.
.	.	.	.	8ff\	.
4BB-/	4G\	.	.	8ee\	.
.	.	.	.	8dd\J	.
=109	=109	=109	=109	=109	=109
2AA/	4A\	2r	.	8cc#X\L	.
.	.	.	.	8dd\	.
.	2A^<\	.	.	8ee\	.
.	.	.	.	8ff\J	.
!	!	!LO:TX:a:t=P:problem=diminuendolike accent	!	!	!
2AAA/	.	(>2cc#X 2e^<\	.	8gg\L	.
.	.	.	.	8aa\J	.
.	4G\	.	.	[>4bb-\	.
=110	=110	=110	=110	=110	=110
[<1AA^<	4F\	4dd 4f\)	.	8bb-\L]	.
.	.	.	.	8aa\	.
.	4E\	8a/L	.	8ddd\	.
.	.	8g/J	.	8eee\J	.
.	8D\L	4f/	.	4fff\	.
.	8d\	.	.	.	.
.	8c\	4dd\	.	4r	.
.	8B-\J	.	.	.	.
=111	=111	=111	=111	=111	=111
2AA/]	4A\	2r	.	8b-X\L	.
.	.	.	.	8ccn\	.
.	2G^<\	.	.	8dd\	.
.	.	.	.	8ee\J	.
!	!	!LO:TX:a:t=P:problem=diminuendolike accent	!	!	!
2AAA/	.	(>2b- 2d^<\	.	8ff\L	.
.	.	.	.	8gg\J	.
.	4F\	.	.	[>4aa\	.
=112	=112	=112	=112	=112	=112
[<1AA^<	4E\	4ccn 4e\)	.	8aa\L]	.
.	.	.	.	8gg\	.
.	4D\	8g/L	.	8ccc\	.
.	.	8f/J	.	8ddd\J	.
.	8C\L	4e/	.	4eee\	.
.	8c\	.	.	.	.
.	8B-\	4cc\	.	4r	.
.	8A\J	.	.	.	.
=113	=113	=113	=113	=113	=113
2AA/]	4G\	2r	.	8a\L	.
.	.	.	.	8b-\	.
.	2F^<\	.	.	8cc\	.
.	.	.	.	8dd\J	.
!	!	!LO:LB:g=original	!	!LO:LB:g=original	!
2AAA/	.	(<2a 2c/	.	8ee\L	.
.	.	.	.	8ff\J	.
.	4E\	.	.	[>4gg\	.
=114	=114	=114	=114	=114	=114
[<1AA^<	4D\	4b- 4d/)	.	8gg\L]	.
.	.	.	.	8ff\	.
.	4C\	8f/L	.	8bb-\	.
.	.	8e/J	.	8ccc\J	.
!	!LO:TX:a:t=P:problem=mixed beam	!	!	!	!
.	8BB-/L	4d/	.	4ddd\	.
.	8B-\	.	.	.	.
.	8A\	4b-\	.	4r	.
.	8G\J	.	.	.	.
!LO:LB:g=original	!LO:LB:g=original	!	!	!	!
=115	=115	=115	=115	=115	=115
2AA/]	4F\	2r	.	8g/L	.
.	.	.	.	8a/	.
.	2E\	.	.	8b-X/	.
.	.	.	.	8ccn/J	.
2AAA/	.	(<2g 2e/	.	8dd\L	.
.	.	.	.	8ee\	.
.	[>4A\	.	.	8ff\	.
.	.	.	.	8gg\J	.
=116	=116	=116	=116	=116	=116
[>1AA [<1AAA	4A\]	4f/)	.	8aa\L	.
.	.	.	.	8bb-\	.
.	8Bn\L	8ff\L	.	8aa\	.
.	8c#X\J	8ee\J	.	8gg\J	.
.	4d\	4dd\	.	8ff\L	.
.	.	.	.	8fff\	.
.	8D\L	8cc\L	.	8eee\	.
.	8E\J	8b-\J	.	8ddd\J	.
=117	=117	=117	=117	=117	=117
1AA] 1AAA]	4F\	4a/	.	8ccc\L	.
.	.	.	.	8bb-\	.
.	4G\	4b-/	.	8aa\	.
.	.	.	.	8gg\J	.
.	4A\	4a/	.	8ff\L	.
.	.	.	.	8aa\	.
.	4C#X/	4g/	.	8gg\	.
.	.	.	.	8ee\J	.
=118	=118	=118	=118	=118	=118
[<1DD	4D\	8f/L	.	4dd\	.
.	.	8g/	.	.	.
.	8D\L	8f/	.	4r	.
.	8E\J	8e/J	.	.	.
.	4F\	4d/	.	2r	.
.	8G\L	8e/L	.	.	.
.	8A\J	8f#X/J	.	.	.
=119	=119	=119	=119	=119	=119
1DD]	8B-\L	4g/	.	1r	.
.	8A\	.	.	.	.
.	8G\	2b-^</	.	.	.
.	8F#X\J	.	.	.	.
.	8G\L	.	.	.	.
.	8A\	.	.	.	.
.	8Bn\	8a/L	.	.	.
.	8c#X\J	8g/J	.	.	.
=120	=120	=120	=120	=120	=120
[>1D [>1DD	4d\	8f#X/L	.	4r	.
.	.	8g/	.	.	.
.	2F#X^<\	8a/	.	2dd^<\	.
.	.	8b-/J	.	.	.
.	.	2cc\	.	.	.
.	8G\L	.	.	8ee\L	.
.	8A\J	.	.	8ff#X\J	.
!	!	!LO:LB:g=original	!	!LO:LB:g=original	!
=121	=121	=121	=121	=121	=121
*	*	*^	*	*	*
1D_> 1DD_>	2.B-\	2b-/	[<1d	.	4gg\	.
.	.	.	.	.	2ddd^<\	.
.	.	4g/	.	.	.	.
.	8A\L	4b-/	.	.	8ccc\L	.
.	8G\J	.	.	.	8bb-\J	.
!LO:LB:g=original	!LO:LB:g=original	!	!	!	!	!
=122	=122	=122	=122	=122	=122	=122
!LO:TX:a:t=P:problem=W źródle po zmianie systemu ligatury obracają się	!	!	!	!	!	!
2D] 2DD/]	2F#X\	2dd/	2d/]	.	2aa\	.
2GG 2GGG/	2d 2B- 2G 2D\	2dd/	2b-\	.	2gg\	.
*	*	*v	*v	*	*	*
=123	=123	=123	=123	=123	=123
!	!	!LO:TX:a:t=P:problem=w źródle ozdobna kreska końcowa	!	!LO:TX:a:t=P:problem=w źródle ozdobna kreska końcowa	!
!LO:TX:a:t=P:problem=w źródle ozdobna kreska końcowa	!LO:TX:a:t=P:problem=w źródle ozdobna kreska końcowa	!	!	!	!
!	!LO:TX:b:Bi:t=Fine:problem=wspólne dla Secondo	!	!	!LO:TX:b:Bi:t=Fine:problem=wspólne dla Primo	!
1AA 1DD;>	1d 1A 1F#X 1D;>	1dd 1a;>	.	1ff#X;>	.
==	==	==	==	==	==
*-	*-	*-	*-	*-	*-
!!title: @{OTL};
!!!RDF**kern: > = above
!!!RDF**kern: < = below
!!!RDF**kern: N = linked
!!!RDF**kern: i = editorial accidental
!!!EED: Wojciech Jakubiak-Danek
!!!EST: 2021-04-14
!!!URL-scan: http://repozytorium.nifc.pl/skany/pl-wtm-nut--r1184
!!!ONB-nifc: UWAGA: części: 1. Adagio, 2. Fuga
!!!AIN: 4 empty
!!!ENC: Berenika Jozajtis
!!!END: 2021-03-27
